humanity-icon-theme/Humanity/apps/32/addressbook.svg

<?xml version="1.0" encoding="UTF-8" standalone="no"?>
<!-- Created with Inkscape (http://www.inkscape.org/) -->
<svg
   xmlns:svg="http://www.w3.org/2000/svg"
   xmlns="http://www.w3.org/2000/svg"
   xmlns:xlink="http://www.w3.org/1999/xlink"
   version="1.0"
   width="32"
   height="32.000042"
   id="svg3506">
  <defs
     id="defs3508">
    <linearGradient
       id="linearGradient5060">
      <stop
         id="stop5062"
         style="stop-color:#000000;stop-opacity:1"
         offset="0" />
      <stop
         id="stop5064"
         style="stop-color:#000000;stop-opacity:0"
         offset="1" />
    </linearGradient>
    <linearGradient
       id="linearGradient5048">
      <stop
         id="stop5050"
         style="stop-color:#000000;stop-opacity:0"
         offset="0" />
      <stop
         id="stop5056"
         style="stop-color:#000000;stop-opacity:1"
         offset="0.5" />
      <stop
         id="stop5052"
         style="stop-color:#000000;stop-opacity:0"
         offset="1" />
    </linearGradient>
    <linearGradient
       id="linearGradient3319">
      <stop
         id="stop3321"
         style="stop-color:#af9b7f;stop-opacity:1"
         offset="0" />
      <stop
         id="stop3323"
         style="stop-color:#736148;stop-opacity:1"
         offset="1" />
    </linearGradient>
    <linearGradient
       id="linearGradient8967">
      <stop
         id="stop8969"
         style="stop-color:#ddcfbd;stop-opacity:1"
         offset="0" />
      <stop
         id="stop8971"
         style="stop-color:#856f50;stop-opacity:1"
         offset="1" />
    </linearGradient>
    <linearGradient
       id="linearGradient8978">
      <stop
         id="stop8980"
         style="stop-color:#4d5459;stop-opacity:0.99607843"
         offset="0" />
      <stop
         id="stop8982"
         style="stop-color:#141b1f;stop-opacity:1"
         offset="1" />
    </linearGradient>
    <linearGradient
       id="linearGradient3913">
      <stop
         id="stop3915"
         style="stop-color:#4e555a;stop-opacity:1"
         offset="0" />
      <stop
         id="stop3917"
         style="stop-color:#151c20;stop-opacity:1"
         offset="0.15977758" />
      <stop
         id="stop3919"
         style="stop-color:#9b876c;stop-opacity:1"
         offset="0.1672256" />
      <stop
         id="stop3921"
         style="stop-color:#9b876c;stop-opacity:1"
         offset="0.75216067" />
      <stop
         id="stop3923"
         style="stop-color:#9b876c;stop-opacity:1"
         offset="0.93860334" />
      <stop
         id="stop3925"
         style="stop-color:#c2c2c2;stop-opacity:1"
         offset="0.94891226" />
      <stop
         id="stop3927"
         style="stop-color:#c2c2c2;stop-opacity:1"
         offset="1" />
    </linearGradient>
    <linearGradient
       id="linearGradient2346">
      <stop
         id="stop2348"
         style="stop-color:#eeeeee;stop-opacity:1"
         offset="0" />
      <stop
         id="stop2350"
         style="stop-color:#d9d9da;stop-opacity:1"
         offset="1" />
    </linearGradient>
    <linearGradient
       x1="24.62738"
       y1="3.1234391"
       x2="24.640038"
       y2="4.882647"
       id="linearGradient3203"
       xlink:href="#linearGradient2346"
       gradientUnits="userSpaceOnUse"
       gradientTransform="matrix(0.6747109,0,0,0.9989811,0.8698393,-2.4456849)" />
    <linearGradient
       x1="5.7542129"
       y1="5.2438145"
       x2="55.495323"
       y2="0.065301567"
       id="linearGradient3205"
       xlink:href="#linearGradient3913"
       gradientUnits="userSpaceOnUse"
       gradientTransform="matrix(0.4813336,0,0,0.4852836,1.4953782,0.1447783)" />
    <linearGradient
       x1="5.4800777"
       y1="25.019028"
       x2="8.5000601"
       y2="25.019028"
       id="linearGradient3211"
       xlink:href="#linearGradient8978"
       gradientUnits="userSpaceOnUse"
       gradientTransform="matrix(0.5714285,0,0,0.6904762,1.1428573,-0.7618626)" />
    <linearGradient
       x1="16.1015"
       y1="9.8888979"
       x2="38.491451"
       y2="45.999996"
       id="linearGradient3214"
       xlink:href="#linearGradient8967"
       gradientUnits="userSpaceOnUse"
       gradientTransform="matrix(0.6587085,0,0,0.6995241,0.8127822,-1.3378195)" />
    <linearGradient
       x1="22.333973"
       y1="11.029935"
       x2="53.453438"
       y2="61.220222"
       id="linearGradient3216"
       xlink:href="#linearGradient3319"
       gradientUnits="userSpaceOnUse"
       gradientTransform="matrix(0.4739302,0,0,0.5032963,0.8342355,2.8378404e-2)" />
    <linearGradient
       x1="302.85715"
       y1="366.64789"
       x2="302.85715"
       y2="609.50507"
       id="linearGradient3222"
       xlink:href="#linearGradient5048"
       gradientUnits="userSpaceOnUse"
       gradientTransform="matrix(7.04142e-2,0,0,1.537476e-2,-1.4497047,38.629007)" />
    <radialGradient
       cx="605.71429"
       cy="486.64789"
       r="117.14286"
       fx="605.71429"
       fy="486.64789"
       id="radialGradient3224"
       xlink:href="#linearGradient5060"
       gradientUnits="userSpaceOnUse"
       gradientTransform="matrix(-2.409717e-2,0,0,1.537476e-2,21.522412,38.629039)" />
    <radialGradient
       cx="605.71429"
       cy="486.64789"
       r="117.14286"
       fx="605.71429"
       fy="486.64789"
       id="radialGradient3226"
       xlink:href="#linearGradient5060"
       gradientUnits="userSpaceOnUse"
       gradientTransform="matrix(2.409717e-2,0,0,1.537476e-2,26.477584,38.629039)" />
  </defs>
  <g
     transform="matrix(0.6374177,0,0,0.634005,0.6966414,1.5678024)"
     id="g2877"
     style="display:inline">
    <rect
       width="34"
       height="3.7338707"
       x="7"
       y="44.266129"
       id="rect2879"
       style="opacity:0.40206185;fill:url(#linearGradient3222);fill-opacity:1;fill-rule:nonzero;stroke:none;stroke-width:1;marker:none;visibility:visible;display:inline;overflow:visible" />
    <path
       d="M 7,44.266291 C 7,44.266291 7,47.999956 7,47.999956 C 5.7590552,48.006956 4,47.163431 4,46.132883 C 4,45.102336 5.3848007,44.266292 7,44.266291 L 7,44.266291 z"
       id="path2881"
       style="opacity:0.40206185;fill:url(#radialGradient3224);fill-opacity:1;fill-rule:nonzero;stroke:none;stroke-width:1;marker:none;visibility:visible;display:inline;overflow:visible" />
    <path
       d="M 41,44.266291 C 41,44.266291 41,47.999956 41,47.999956 C 42.240944,48.006956 44,47.163431 44,46.132883 C 44,45.102336 42.615199,44.266292 41,44.266291 L 41,44.266291 z"
       id="path2883"
       style="opacity:0.40206185;fill:url(#radialGradient3226);fill-opacity:1;fill-rule:nonzero;stroke:none;stroke-width:1;marker:none;visibility:visible;display:inline;overflow:visible" />
  </g>
  <rect
     width="22.980959"
     height="27.980959"
     rx="0.30968902"
     ry="0.33013454"
     x="4.5095205"
     y="2.509563"
     id="rect2719"
     style="fill:url(#linearGradient3214);fill-opacity:1;stroke:url(#linearGradient3216);stroke-width:1.0190413;stroke-linecap:round;stroke-linejoin:round;stroke-miterlimit:0;stroke-dasharray:none;stroke-dashoffset:0;stroke-opacity:1;display:inline" />
  <path
     d="M 4,2.000042 C 5.6509088,3.013312 7.1287778,2.5930919 8,2.6976464 L 8,31.000042 C 8,31.000042 5.4692389,31.000042 4.8165808,31.000042 C 4.8165808,31.000042 4,31.000042 4,30.188322 L 4,2.000042 L 4,2.000042 z"
     id="path2721"
     style="fill:url(#linearGradient3211);fill-opacity:1;stroke:none;display:inline" />
  <rect
     width="1.1867101"
     height="27.034784"
     rx="0.64036411"
     ry="0.79861653"
     x="6.7414327"
     y="3.1606569"
     id="rect2725"
     style="fill:#4d4d4d;fill-opacity:1;stroke:none;display:inline" />
  <path
     d="M 15.904977,17.525097 C 15.90497,18.209956 16.052027,18.750044 16.346153,19.145365 C 16.645919,19.54069 17.050332,19.73835 17.559388,19.738348 C 18.062775,19.73835 18.464357,19.54069 18.764139,19.145365 C 19.063905,18.744477 19.213789,18.204389 19.213801,17.525097 C 19.213789,16.851383 19.061077,16.319647 18.755656,15.929884 C 18.455869,15.534569 18.05146,15.336907 17.54242,15.3369 C 17.044675,15.336907 16.645919,15.534569 16.346153,15.929884 C 16.052027,16.319647 15.90497,16.851383 15.904977,17.525097 M 19.383484,20.039017 C 19.213789,20.43434 18.93947,20.743361 18.560519,20.966077 C 18.187207,21.183226 17.748857,21.291802 17.245474,21.291802 C 16.272616,21.291802 15.480762,20.946591 14.869909,20.256168 C 14.2647,19.560177 13.962099,18.655391 13.962105,17.541802 C 13.962099,16.42822 14.267528,15.523433 14.878394,14.827436 C 15.489245,14.131453 16.278272,13.783458 17.245474,13.78345 C 17.748857,13.783458 18.187207,13.894815 18.560519,14.117525 C 18.93947,14.340249 19.213789,14.649269 19.383484,15.044584 L 19.383484,13.950487 L 21.156674,13.950487 L 21.156674,19.738348 C 21.858017,19.632561 22.409486,19.301269 22.811082,18.744474 C 23.212654,18.182115 23.413445,17.463854 23.41346,16.589685 C 23.413445,16.032899 23.331434,15.512297 23.16742,15.027882 C 23.003379,14.53791 22.754509,14.089692 22.420813,13.683226 C 21.883469,13.003948 21.210396,12.480562 20.401582,12.11307 C 19.598404,11.745597 18.727365,11.561856 17.788463,11.561846 C 17.132344,11.561856 16.504516,11.648158 15.904977,11.820754 C 15.305423,11.987802 14.751124,12.235574 14.24208,12.564072 C 13.404972,13.10974 12.751693,13.816865 12.282238,14.685454 C 11.818437,15.548489 11.586535,16.483898 11.586538,17.491689 C 11.586535,18.321314 11.736421,19.100824 12.036199,19.83022 C 12.341626,20.554052 12.779973,21.194365 13.351245,21.751156 C 13.916849,22.296811 14.564472,22.711622 15.294118,22.995587 C 16.029404,23.285119 16.812774,23.429884 17.644232,23.429886 C 18.35689,23.429884 19.06956,23.29904 19.78224,23.037347 C 20.494897,22.775654 21.102928,22.422091 21.606333,21.976656 L 22.514138,23.329664 C 21.807112,23.869751 21.035055,24.281775 20.197962,24.565744 C 19.366504,24.855274 18.520918,25.000038 17.661199,25.000042 C 16.61481,25.000038 15.62782,24.816299 14.700226,24.448819 C 13.772619,24.086901 12.946828,23.557948 12.22285,22.861958 C 11.498867,22.165966 10.947396,21.361401 10.56844,20.448259 C 10.189478,19.529553 9.999999,18.544033 10,17.491689 C 9.999999,16.478332 10.192304,15.512297 10.576921,14.593583 C 10.961537,13.674883 11.510178,12.867534 12.22285,12.171534 C 12.935517,11.48112 13.764136,10.9466 14.708709,10.56797 C 15.658927,10.189362 16.64309,10.000054 17.661199,10.000042 C 18.928156,10.000054 20.079172,10.239473 21.114253,10.718304 C 22.149305,11.19159 23.01469,11.876444 23.710405,12.77287 C 24.134599,13.318537 24.454168,13.911519 24.669117,14.551822 C 24.88969,15.186573 24.999982,15.854724 25,16.556278 C 24.999982,18.06519 24.53901,19.237239 23.61708,20.072423 C 22.695121,20.907615 21.394218,21.32521 19.714365,21.325209 L 19.383484,21.325209 L 19.383484,20.039017"
     id="path2781"
     style="font-size:23.55376053px;font-style:normal;font-weight:normal;opacity:0.4;fill:#ffffff;fill-opacity:1;stroke:none;display:inline;font-family:Bitstream Vera Sans" />
  <path
     d="M 8.4999997,3.5107536 L 26.499999,3.4893304"
     id="path4743"
     style="opacity:0.4;fill:#ffffff;fill-rule:evenodd;stroke:#ffffff;stroke-width:0.99999994;stroke-linecap:square;stroke-linejoin:round;stroke-miterlimit:4;stroke-dasharray:none;stroke-opacity:1;display:inline" />
  <path
     d="M 27.491301,2.2678833 C 27.292793,1.624082 27.416518,1.1227478 27.306879,0.50874075 C 27.306879,0.50874075 8.0943148,0.50874075 6.9859848,0.50874075 C 5.9307565,0.50874075 4.8881513,0.65832899 4.5939614,1.2669965 C 4.5773881,1.3012876 4.5590736,1.335844 4.5488365,1.3731522 C 4.2789236,2.0006076 5.3967671,2.4913431 7.1059207,2.4913431 C 8.2769744,2.4913431 7.7007677,2.4913431 8.1239241,2.4913431"
     id="path2723"
     style="fill:url(#linearGradient3203);fill-opacity:1;stroke:url(#linearGradient3205);stroke-width:1.01739764;stroke-linecap:butt;stroke-linejoin:round;stroke-miterlimit:0;stroke-dasharray:none;stroke-dashoffset:0;stroke-opacity:1;display:inline" />
  <path
     d="M 27.54605,2.5000419 L 8.0000001,2.5000419"
     id="path4494"
     style="fill:#a18d72;fill-opacity:1;fill-rule:evenodd;stroke:#a18d72;stroke-width:1.00000012px;stroke-linecap:butt;stroke-linejoin:miter;stroke-opacity:1;display:inline" />
  <path
     d="M 15.904977,16.525099 C 15.90497,17.209958 16.052027,17.750046 16.346153,18.145365 C 16.645919,18.540691 17.050332,18.738351 17.559388,18.738349 C 18.062775,18.738351 18.464357,18.540691 18.764139,18.145365 C 19.063905,17.744477 19.213789,17.204389 19.213801,16.525099 C 19.213789,15.851382 19.061077,15.319648 18.755656,14.929885 C 18.455869,14.534568 18.05146,14.336909 17.54242,14.336902 C 17.044675,14.336909 16.645919,14.534568 16.346153,14.929885 C 16.052027,15.319648 15.90497,15.851382 15.904977,16.525099 M 19.383484,19.039017 C 19.213789,19.434341 18.93947,19.74336 18.560519,19.966078 C 18.187207,20.183228 17.748857,20.291802 17.245474,20.291801 C 16.272616,20.291802 15.480762,19.94659 14.869909,19.256167 C 14.2647,18.560177 13.962099,17.65539 13.962105,16.5418 C 13.962099,15.42822 14.267528,14.523435 14.878394,13.827436 C 15.489245,13.131453 16.278272,12.783458 17.245474,12.783449 C 17.748857,12.783458 18.187207,12.894816 18.560519,13.117526 C 18.93947,13.340251 19.213789,13.649269 19.383484,14.044584 L 19.383484,12.950488 L 21.156674,12.950488 L 21.156674,18.738349 C 21.858017,18.632561 22.409486,18.30127 22.811082,17.744473 C 23.212654,17.182116 23.413445,16.463855 23.41346,15.589686 C 23.413445,15.032898 23.331434,14.512298 23.16742,14.027881 C 23.003379,13.537911 22.754509,13.089694 22.420813,12.683228 C 21.883469,12.003948 21.210396,11.480563 20.401582,11.113071 C 19.598404,10.745598 18.727365,10.561856 17.788463,10.561847 C 17.132344,10.561856 16.504516,10.64816 15.904977,10.820755 C 15.305423,10.987802 14.751124,11.235575 14.24208,11.564075 C 13.404972,12.109739 12.751693,12.816864 12.282238,13.685454 C 11.818437,14.548489 11.586535,15.483899 11.586538,16.491691 C 11.586535,17.321314 11.736421,18.100824 12.036199,18.830222 C 12.341626,19.55405 12.779973,20.194363 13.351245,20.751155 C 13.916849,21.296811 14.564472,21.711623 15.294118,21.995587 C 16.029404,22.285119 16.812774,22.429885 17.644232,22.429886 C 18.35689,22.429885 19.06956,22.299038 19.78224,22.037347 C 20.494897,21.775655 21.102928,21.422091 21.606333,20.976656 L 22.514138,22.329664 C 21.807112,22.869751 21.035055,23.281777 20.197962,23.565743 C 19.366504,23.855273 18.520918,24.00004 17.661199,24.000042 C 16.61481,24.00004 15.62782,23.816298 14.700226,23.448818 C 13.772619,23.086899 12.946828,22.557945 12.22285,21.861958 C 11.498867,21.165966 10.947396,20.361404 10.56844,19.448259 C 10.189478,18.529555 9.999999,17.544032 10,16.491691 C 9.999999,15.478333 10.192304,14.512298 10.576921,13.593583 C 10.961537,12.674882 11.510178,11.867534 12.22285,11.171535 C 12.935517,10.48112 13.764136,9.9466007 14.708709,9.5679701 C 15.658927,9.1893615 16.64309,9.0000544 17.661199,9.000042 C 18.928156,9.0000544 20.079172,9.2394746 21.114253,9.718306 C 22.149305,10.19159 23.01469,10.876445 23.710405,11.772871 C 24.134599,12.318535 24.454168,12.91152 24.669117,13.551823 C 24.88969,14.186572 24.999982,14.854725 25,15.556276 C 24.999982,17.065192 24.53901,18.237237 23.61708,19.072425 C 22.695121,19.907616 21.394218,20.325209 19.714365,20.325209 L 19.383484,20.325209 L 19.383484,19.039017"
     id="path2779"
     style="font-size:23.55376053px;font-style:normal;font-weight:normal;fill:#746956;fill-opacity:1;stroke:none;display:inline;font-family:Bitstream Vera Sans" />
</svg>

<?xml version="1.0" encoding="UTF-8" standalone="no"?>
<!-- Created with Inkscape (http://www.inkscape.org/) -->
<svg id="svg3506" xmlns="http://www.w3.org/2000/svg" height="32" width="32" version="1.0" xmlns:xlink="http://www.w3.org/1999/xlink">
 <defs id="defs3508">
  <linearGradient id="linearGradient5060">
   <stop id="stop5062" offset="0"/>
   <stop id="stop5064" style="stop-opacity:0" offset="1"/>
  </linearGradient>
  <linearGradient id="linearGradient3203" y2="4.8826" gradientUnits="userSpaceOnUse" x2="24.64" gradientTransform="matrix(.67471 0 0 .99898 .86984 -2.4457)" y1="3.1234" x1="24.627">
   <stop id="stop2348" style="stop-color:#eee" offset="0"/>
   <stop id="stop2350" style="stop-color:#d9d9da" offset="1"/>
  </linearGradient>
  <linearGradient id="linearGradient3205" y2=".065302" gradientUnits="userSpaceOnUse" x2="55.495" gradientTransform="matrix(.48133 0 0 .48528 1.4954 .14478)" y1="5.2438" x1="5.7542">
   <stop id="stop3915" style="stop-color:#4e555a" offset="0"/>
   <stop id="stop3917" style="stop-color:#151c20" offset=".15978"/>
   <stop id="stop3919" style="stop-color:#9b876c" offset=".16723"/>
   <stop id="stop3921" style="stop-color:#9b876c" offset=".75216"/>
   <stop id="stop3923" style="stop-color:#9b876c" offset=".93860"/>
   <stop id="stop3925" style="stop-color:#c2c2c2" offset=".94891"/>
   <stop id="stop3927" style="stop-color:#c2c2c2" offset="1"/>
  </linearGradient>
  <linearGradient id="linearGradient3211" y2="25.019" gradientUnits="userSpaceOnUse" x2="8.5001" gradientTransform="matrix(.57143 0 0 .69048 1.1429 -.76186)" y1="25.019" x1="5.4801">
   <stop id="stop8980" style="stop-color:#4d5459;stop-opacity:.99608" offset="0"/>
   <stop id="stop8982" style="stop-color:#141b1f" offset="1"/>
  </linearGradient>
  <linearGradient id="linearGradient3214" y2="46" gradientUnits="userSpaceOnUse" x2="38.491" gradientTransform="matrix(.65871 0 0 .69952 .81278 -1.3378)" y1="9.8889" x1="16.102">
   <stop id="stop8969" style="stop-color:#ddcfbd" offset="0"/>
   <stop id="stop8971" style="stop-color:#856f50" offset="1"/>
  </linearGradient>
  <linearGradient id="linearGradient3216" y2="61.22" gradientUnits="userSpaceOnUse" x2="53.453" gradientTransform="matrix(.47393 0 0 .50330 .83424 .028378)" y1="11.03" x1="22.334">
   <stop id="stop3321" style="stop-color:#af9b7f" offset="0"/>
   <stop id="stop3323" style="stop-color:#736148" offset="1"/>
  </linearGradient>
  <linearGradient id="linearGradient3222" y2="609.51" gradientUnits="userSpaceOnUse" x2="302.86" gradientTransform="matrix(.070414 0 0 .015375 -1.4497 38.629)" y1="366.65" x1="302.86">
   <stop id="stop5050" style="stop-opacity:0" offset="0"/>
   <stop id="stop5056" offset=".5"/>
   <stop id="stop5052" style="stop-opacity:0" offset="1"/>
  </linearGradient>
  <radialGradient id="radialGradient3224" xlink:href="#linearGradient5060" gradientUnits="userSpaceOnUse" cy="486.65" cx="605.71" gradientTransform="matrix(-.024097 0 0 .015375 21.522 38.629)" r="117.14"/>
  <radialGradient id="radialGradient3226" xlink:href="#linearGradient5060" gradientUnits="userSpaceOnUse" cy="486.65" cx="605.71" gradientTransform="matrix(.024097 0 0 .015375 26.478 38.629)" r="117.14"/>
 </defs>
 <g id="g2877" transform="matrix(.63742 0 0 0.634 .69664 1.5678)">
  <rect id="rect2879" style="opacity:.40206;fill:url(#linearGradient3222)" height="3.7339" width="34" y="44.266" x="7"/>
  <path id="path2881" style="opacity:.40206;fill:url(#radialGradient3224)" d="m7 44.266v3.734c-1.2409 0.007-3-0.837-3-1.867 0-1.031 1.3848-1.867 3-1.867z"/>
  <path id="path2883" style="opacity:.40206;fill:url(#radialGradient3226)" d="m41 44.266v3.734c1.241 0.007 3-0.837 3-1.867 0-1.031-1.385-1.867-3-1.867z"/>
 </g>
 <rect id="rect2719" style="stroke-linejoin:round;stroke:url(#linearGradient3216);stroke-linecap:round;stroke-miterlimit:0;stroke-width:1.019;fill:url(#linearGradient3214)" rx=".30969" ry=".33013" height="27.981" width="22.981" y="2.5096" x="4.5095"/>
 <path id="path2721" style="fill:url(#linearGradient3211)" d="m4 2c1.6509 1.0133 3.1288 0.5931 4 0.6976v28.302h-3.1834s-0.8166 0-0.8166-0.812v-28.188z"/>
 <rect id="rect2725" style="fill:#4d4d4d" rx=".64036" ry=".79862" height="27.035" width="1.1867" y="3.1607" x="6.7414"/>
 <path id="path2781" style="opacity:.4;fill:#fff" d="m15.905 17.525c0 0.685 0.147 1.225 0.441 1.62 0.3 0.396 0.704 0.593 1.213 0.593 0.504 0 0.905-0.197 1.205-0.593 0.3-0.401 0.45-0.941 0.45-1.62 0-0.674-0.153-1.205-0.458-1.595-0.3-0.395-0.705-0.593-1.214-0.593-0.497 0-0.896 0.198-1.196 0.593-0.294 0.39-0.441 0.921-0.441 1.595m3.478 2.514c-0.169 0.395-0.444 0.704-0.822 0.927-0.374 0.217-0.812 0.326-1.316 0.326-0.972 0-1.764-0.345-2.375-1.036-0.605-0.696-0.908-1.601-0.908-2.714 0-1.114 0.306-2.019 0.916-2.715 0.611-0.696 1.4-1.044 2.367-1.044 0.504 0 0.942 0.112 1.316 0.335 0.378 0.222 0.653 0.531 0.822 0.927v-1.095h1.774v5.788c0.701-0.105 1.252-0.437 1.654-0.994 0.402-0.562 0.602-1.28 0.602-2.154 0-0.557-0.082-1.078-0.246-1.562-0.164-0.49-0.412-0.938-0.746-1.345-0.538-0.679-1.211-1.202-2.019-1.57-0.804-0.367-1.675-0.551-2.614-0.551-0.656 0-1.283 0.086-1.883 0.259-0.6 0.167-1.154 0.415-1.663 0.743-0.837 0.546-1.49 1.253-1.96 2.121-0.464 0.863-0.695 1.799-0.695 2.807 0 0.829 0.149 1.609 0.449 2.338 0.306 0.724 0.744 1.364 1.315 1.921 0.566 0.546 1.213 0.961 1.943 1.245 0.735 0.289 1.519 0.434 2.35 0.434 0.713 0 1.426-0.131 2.138-0.393 0.713-0.261 1.321-0.615 1.824-1.06l0.908 1.353c-0.707 0.54-1.479 0.952-2.316 1.236-0.831 0.289-1.677 0.434-2.537 0.434-1.046 0-2.033-0.184-2.961-0.551-0.927-0.362-1.753-0.891-2.477-1.587s-1.276-1.501-1.655-2.414c-0.379-0.918-0.568-1.904-0.568-2.956 0-1.014 0.192-1.98 0.577-2.898 0.385-0.919 0.933-1.726 1.646-2.422 0.713-0.691 1.541-1.225 2.486-1.604 0.95-0.379 1.934-0.568 2.952-0.568 1.267 0 2.418 0.239 3.453 0.718 1.035 0.474 1.901 1.158 2.596 2.055 0.425 0.546 0.744 1.139 0.959 1.779 0.221 0.635 0.331 1.303 0.331 2.004 0 1.509-0.461 2.681-1.383 3.516-0.922 0.836-2.223 1.253-3.903 1.253h-0.331v-1.286"/>
 <path id="path4743" style="opacity:.4;stroke-linejoin:round;fill-rule:evenodd;stroke:#fff;stroke-linecap:square;fill:#fff" d="m8.5 3.5108l18-0.0215"/>
 <path id="path2723" style="stroke-linejoin:round;stroke:url(#linearGradient3205);stroke-miterlimit:0;stroke-width:1.0174;fill:url(#linearGradient3203)" d="m27.491 2.2679c-0.198-0.6438-0.074-1.1452-0.184-1.7592 0 0.00004-19.213 0.00004-20.321 0.00004-1.0552 0-2.0978 0.14959-2.392 0.75826-0.0166 0.0343-0.0349 0.0688-0.0452 0.1062-0.2699 0.6274 0.848 1.1181 2.5571 1.1181h1.018"/>
 <path id="path4494" style="fill-rule:evenodd;stroke:#a18d72;stroke-width:1px;fill:#a18d72" d="m27.546 2.5h-19.546"/>
 <path id="path2779" style="fill:#746956" d="m15.905 16.525c0 0.685 0.147 1.225 0.441 1.62 0.3 0.396 0.704 0.593 1.213 0.593 0.504 0 0.905-0.197 1.205-0.593 0.3-0.401 0.45-0.941 0.45-1.62 0-0.674-0.153-1.205-0.458-1.595-0.3-0.395-0.705-0.593-1.214-0.593-0.497 0-0.896 0.198-1.196 0.593-0.294 0.39-0.441 0.921-0.441 1.595m3.478 2.514c-0.169 0.395-0.444 0.704-0.822 0.927-0.374 0.217-0.812 0.326-1.316 0.326-0.972 0-1.764-0.345-2.375-1.036-0.605-0.696-0.908-1.601-0.908-2.714 0-1.114 0.306-2.019 0.916-2.715 0.611-0.696 1.4-1.044 2.367-1.044 0.504 0 0.942 0.112 1.316 0.335 0.378 0.222 0.653 0.531 0.822 0.927v-1.095h1.774v5.788c0.701-0.105 1.252-0.437 1.654-0.994 0.402-0.562 0.602-1.28 0.602-2.154 0-0.557-0.082-1.078-0.246-1.562-0.164-0.49-0.412-0.938-0.746-1.345-0.538-0.679-1.211-1.202-2.019-1.57-0.804-0.367-1.675-0.551-2.614-0.551-0.656 0-1.283 0.086-1.883 0.259-0.6 0.167-1.154 0.415-1.663 0.743-0.837 0.546-1.49 1.253-1.96 2.121-0.464 0.863-0.695 1.799-0.695 2.807 0 0.829 0.149 1.609 0.449 2.338 0.306 0.724 0.744 1.364 1.315 1.921 0.566 0.546 1.213 0.961 1.943 1.245 0.735 0.289 1.519 0.434 2.35 0.434 0.713 0 1.426-0.131 2.138-0.393 0.713-0.261 1.321-0.615 1.824-1.06l0.908 1.353c-0.707 0.54-1.479 0.952-2.316 1.236-0.831 0.289-1.677 0.434-2.537 0.434-1.046 0-2.033-0.184-2.961-0.551-0.927-0.362-1.753-0.891-2.477-1.587s-1.276-1.501-1.655-2.414c-0.379-0.918-0.568-1.904-0.568-2.956 0-1.014 0.192-1.98 0.577-2.898 0.385-0.919 0.933-1.726 1.646-2.422 0.713-0.691 1.541-1.2254 2.486-1.604 0.95-0.3786 1.934-0.5679 2.952-0.568 1.267 0.0001 2.418 0.2395 3.453 0.7183 1.035 0.4737 1.901 1.1577 2.596 2.0547 0.425 0.546 0.744 1.139 0.959 1.779 0.221 0.635 0.331 1.303 0.331 2.004 0 1.509-0.461 2.681-1.383 3.516-0.922 0.836-2.223 1.253-3.903 1.253h-0.331v-1.286"/>
</svg>
